X: 134
T: Chwalcie Pana z dobroci Jego nieprzebranej,
C: Mikołaj Gomółka
%%abc-version 2.0
%%abcx-abcm2ps-target-version 5.9.1 (29 Sep 2008)
%%abc-creator hum2abc beta
%%abcx-conversion-date 2021/10/04 07:59:08
%%abc-edited-by Anna Matuszewska
%%abcx-initial-encoding-date 2020-02-22
%%humdrum-veritas 4023829077
%%humdrum-veritas-data 1710922988
%%linebreak <none>
%%barnumbers 0
L: 1/4
M: C|
N: Derived from pl-wn--sd-xvi-qu-273--136_gomolka-mikolaj--chwalcie-pana-z-dobroci-jego-nieprzebranej.krn
%%staves [1 2 3 4]
V: 1
V: 2 clef=alto
V: 3 clef=alto
V: 4 clef=bass
K: C
[V:1] A4c2B2 [I:setbarnb 3][|] 
[V:2] E4E3D [|] 
[V:3] A,4A,2G,2 [|] 
[V:4] A,,4A,,2E,2 [|] 
[V:1] A2A2G2G2 [|] 
[V:2] CDE2E4 [|] 
[V:3] A,B,CD2<E2D [|] 
[V:4] A,,2A,2C3B, [|] 
[V:1] A2B2c3B [|] 
[V:2] E2>D2CDE4 [|] 
[V:3] C2B,2A,2C4 [|] 
[V:4] A,2^G,2A,3G, [|] 
[V:1] A4^G2A2 [|] 
[V:2] D2E2E2 [|] 
[V:3] B,A,B,2A,2 [|] 
[V:4] F,4E,2A,,2 [|] 
[V:1] ^F2F2^G4 [|] 
[V:2] D2A,2E3D [|] 
[V:3] A,2DCB,A,B,2 [|] 
[V:4] D,2D,2E,4 [|] 
[V:1] A2E2>F2GA [|] 
[V:2] ^C2A,B,C2C2 [|] 
[V:3] A,B,CDE2E3 [|] 
[V:4] A,,2A,2A,4 [|] 
[V:1] B2c2BAA4 [|] 
[V:2] B,2E2F2D2 [|] 
[V:3] DC2DCB,A, [|] 
[V:4] ^G,2A,2D,2F,2 [|] 
[V:1] G2A4 [|] 
[V:2] E2>D2C4 [|] 
[V:3] B,4A,4 [|] 
[V:4] E,4A,,4 [|] 


